public/images/icons/discord.svg

<?xml version="1.0" encoding="UTF-8"?>
<svg width="64px" height="64px" viewBox="0 0 64 64" version="1.1" xmlns="http://www.w3.org/2000/svg" xmlns:xlink="http://www.w3.org/1999/xlink">
    <!-- Generator: Sketch 62 (91390) - https://sketch.com -->
    <title>icons/discord</title>
    <desc>Created with Sketch.</desc>
    <g id="icons/discord" stroke="none" stroke-width="1" fill="none" fill-rule="evenodd">
        <path d="M48.08,11 C50.792,11 53,13.254 53,16.047 L53,16.047 L53,60 L42,50 L43,54 L16,54 C13.288,54 11,51.793 11,49 L11,49 L11,16.047 C11,13.254 13.208,11 15.92,11 L15.92,11 Z M28.328,22.4167964 C28.328,22.4167964 25.04,22.3435 21.584,24.9895 C21.584,24.9895 18.128,31.384 18.128,39.273 C18.128,39.273 20.144,42.8255 25.448,42.997 C25.448,42.997 26.336,41.8945 27.056,40.9635 C24.008,40.0325 22.856,38.0725 22.856,38.0725 C22.856,38.0725 23.096,38.244 23.528,38.489 C23.552,38.5135 23.576,38.538 23.624,38.5625 C23.696,38.6115 23.768,38.636 23.84,38.685 C24.44,39.028 25.04,39.2975 25.592,39.518 C26.576,39.91 27.752,40.302 29.12,40.5715 C30.92,40.9145 33.032,41.037 35.336,40.596 C36.464,40.4 37.616,40.057 38.816,39.5425 C39.656,39.224 40.592,38.7585 41.576,38.097 C41.576,38.097 40.376,40.106 37.232,41.0125 C37.952,41.9435 38.816,42.997 38.816,42.997 C44.12,42.8255 46.16,39.273 46.16,39.273 C46.16,31.384 42.704,24.9895 42.704,24.9895 C39.4784,22.5199 36.3991467,22.4191093 36.0029156,22.4166465 L35.96,22.4167964 L35.624,22.809 C39.704,24.083 41.6,25.9205 41.6,25.9205 C39.104,24.524 36.656,23.838 34.376,23.5685 C32.648,23.3725 30.992,23.4215 29.528,23.6175 C29.384,23.6175 29.264,23.642 29.12,23.6665 C28.28,23.74 26.24,24.0585 23.672,25.21 C22.784,25.6265 22.256,25.9205 22.256,25.9205 C22.256,25.9205 24.248,23.985 28.568,22.711 L28.568,22.711 Z M27.8457143,30.814 C29.3114286,30.814 30.4942857,32.114 30.4685714,33.7 C30.4685714,35.286 29.3114286,36.586 27.8457143,36.586 C26.4057143,36.586 25.2228571,35.286 25.2228571,33.7 C25.2228571,32.114 26.38,30.814 27.8457143,30.814 Z M37.2314286,30.814 C38.6971429,30.814 39.8542857,32.114 39.8542857,33.7 C39.8542857,35.286 38.6971429,36.586 37.2314286,36.586 C35.7914286,36.586 34.6085714,35.286 34.6085714,33.7 C34.6085714,32.114 35.7657143,30.814 37.2314286,30.814 Z" id="Combined-Shape" fill="#7289DA" fill-rule="nonzero"></path>
    </g>
</svg>

<svg width="64" height="64" xmlns="http://www.w3.org/2000/svg"><path d="M48.08 11c2.712 0 4.92 2.254 4.92 5.047V60L42 50l1 4H16c-2.712 0-5-2.207-5-5V16.047C11 13.254 13.208 11 15.92 11zM28.328 22.417s-3.288-.074-6.744 2.572c0 0-3.456 6.395-3.456 14.284 0 0 2.016 3.552 7.32 3.724 0 0 .888-1.102 1.608-2.033-3.048-.931-4.2-2.892-4.2-2.892s.24.172.672.417a.332.332 0 0 0 .096.074c.072.048.144.073.216.122.6.343 1.2.612 1.752.833.984.392 2.16.784 3.528 1.053 1.8.343 3.912.466 6.216.025a15.554 15.554 0 0 0 3.48-1.053 13.63 13.63 0 0 0 2.76-1.446s-1.2 2.009-4.344 2.916c.72.93 1.584 1.984 1.584 1.984 5.304-.172 7.344-3.724 7.344-3.724 0-7.889-3.456-14.284-3.456-14.284-3.226-2.47-6.305-2.57-6.701-2.572h-.043l-.336.392c4.08 1.274 5.976 3.111 5.976 3.111a19.28 19.28 0 0 0-7.224-2.352 19.896 19.896 0 0 0-4.848.05c-.144 0-.264.024-.408.049-.84.073-2.88.391-5.448 1.543-.888.416-1.416.71-1.416.71s1.992-1.935 6.312-3.209zm-.482 8.397c1.465 0 2.648 1.3 2.623 2.886 0 1.586-1.158 2.886-2.623 2.886-1.44 0-2.623-1.3-2.623-2.886s1.157-2.886 2.623-2.886zm9.385 0c1.466 0 2.623 1.3 2.623 2.886s-1.157 2.886-2.623 2.886c-1.44 0-2.622-1.3-2.622-2.886s1.157-2.886 2.622-2.886z" fill="#7289DA" fill-rule="nonzero"/></svg>
